X:1
T:Title
%%score { ( 1 3 ) | ( 2 4 ) }
L:1/8
M:4/4
K:G
V:1 treble nm="Grand Piano"
V:3 treble 
V:2 bass 
V:4 bass 
V:1
 z4 z2[Q:1/4=108] D2 | G2 G2 GABc | [Fd]2 [Fd]2 [Dd]2 [DB][CA] | [B,G]2 [DG]2 [EA]2 [DA]2 | %4
 [DB]6 D2 | G2 G2 GABc | [Ad]2 [Fd]2 d2 ^cB | A2 d2 [F^c]2 [GA]2 | [Fd]6 D2 | %9
 [DFc]2 [DGc]2 .[DAc]2 .[DFc]2 | [DGB]2 [CFA]2 [B,EG]2 .[G,DG]2 | [G,E]2 [B,^DF]2 [B,EG]2 [EA]2 | %12
 [^DB]6 Bc | d2 [DB]2 [DA]2 .[G,DG]2 | [G,EG]2 [Ee]2 .[Ed]2 BA | G2 B2 B3 A |[M:3/4] [G,B,G]6 | %17
[M:1/4] D2 |[M:4/4][K:bass] D4[K:treble] z4 | B2- [D,B,DB]2 [B,DG]2 E2 | %20
 E2- [E,B,DE]2[K:treble] [DE^G]2 cB |[M:3/4] A2- [CEA-]2 [CEA]2 |[M:1/4] A2 | %23
[M:4/4] B2 c2 d2 [A^d]2 | [^Ge]2 [EB]2 dcBA | G2 B2 B3 A |[M:3/4] [B,G]6 |] %27
V:2
 z4 z2 D,2 | [G,B,D]2 [G,CE]2 [G,B,D]2 [E,G,]2 | [D,A,]2 [C,A,]2 [B,,G,]2 [D,F,]2 | %3
 [E,G,]2 [B,,G,]2 [C,G,]2 [D,F,]2 | [G,,G,]6 D,2 | [G,B,D]2 [G,CE]2 [G,B,D]2 [G,DG]2 | %6
 [F,D]2 [D,C]2[K:treble] [G,B,G]2 [^G,D=F]2 | [A,DF]2 [A,F]2[K:bass] [A,,A,]2 [A,,A,]2 | %8
 [D,A,]6 D,2 | D,2 E,2 z[K:treble] B z d | G,2 D,2 E,2 z F | C,2 B,,2 E,2 [C,E,]2 | %12
 z4 z2[K:treble] [G,G]2 | [G,B,G]2[K:bass] [G,,G,]2 [A,,F,]2 z ^D | %14
 C,2 [C,^G,]2 z[K:treble] c[K:bass] C,2 | [D,B,D]2 [D,G,D]2 [D,F,D]3 [D,F,C] |[M:3/4] G,,6 | %17
[M:1/4] D,2 |[M:4/4] F,,2 z E [A,,D,]2 [D,,D,]2 | [F,,D,]2 z A [G,,D,]2 E,2 | %20
 ^G,,2 z F [B,,E,]2 [E,,E,]2 |[M:3/4] [A,,E,]2 [E,,E,]2 [A,,E,]2 |[M:1/4][K:treble] [CDF]2 | %23
[M:4/4] [B,DG]2 [A,CF]2 [G,B,G]2[K:bass] [=F,A,]2 | [E,B,]2 [E,^G,]2 [A,,A,]2 [B,,A,]2 | %25
 [D,B,D]2 [D,G,D]2 [D,F,D]3 [D,F,C] |[M:3/4] [G,,G,]6 |] %27
V:3
 x8 | z4 z2 G2 | x8 | x8 | x8 | x8 | x8 | x8 | x8 | x8 | x8 | x8 | x8 | x8 | z4 z2 [CE]2 | x8 | %16
[M:3/4] x6 |[M:1/4] x2 |[M:4/4][K:bass] [D,A,C]2 [D,A,C]2[K:treble] [CDF]2 [CDG]2 | [CD]2 z2 z4 | %20
 [E,B,D]2 z2[K:treble] z2 [DE]2 |[M:3/4] [CE]2 z2 z2 |[M:1/4] x2 |[M:4/4] x8 | z4 E2 E2 | x8 | %26
[M:3/4] x6 |] %27
V:4
 x8 | x8 | x8 | x8 | x8 | x8 | x4[K:treble] x4 | x4[K:bass] x4 | x8 | z4 F,2[K:treble] D,2 | %10
 z4 z2 B,,2 | x8 | [B,,F,]6[K:treble] z A, | z4[K:bass] z2 B,,2 | %14
 z4 [C,^G,]2[K:treble][K:bass] z2 | x8 |[M:3/4] x6 |[M:1/4] x2 |[M:4/4] z2 D,,2 z4 | z2 D,,2 z4 | %20
 z2 E,,2 z4 |[M:3/4] x6 |[M:1/4][K:treble] x2 |[M:4/4] x6[K:bass] x2 | x8 | x8 |[M:3/4] x6 |] %27

